!!!SOCIAL_FUNCTION:	dance songs
!!!PDT:	1932
!!!OTL: No_116_Dancing_Song_(b).krn
!!!REG: Southwest
!!!LANG: Non-Tone
!!!LING_GROUP: Yuman-Cochimi
**kern	**kern
*staff2	*staff1
=1-	=1-
*clefF4	*clefF4
*k[b-e-a-d-]	*k[b-e-a-d-]
*M3/4	*M3/4
2.r	2r
.	8.r
.	16A-\
=2	=2
8GG/	8.A-\L
16r	.
16GG/	16B-\Jk
8GG/	8.B-\L
16r	.
16GG/	16A-\Jk
8GG/	8.A-\L
16r	.
16GG/	16A-\Jk
=3||	=3||
*M2/4	*M2/4
8GG/	8.A-\L
16r	.
16GG/	16A-\Jk
8GG/	8A-\
16r	16r
16GG/	16F\
=4||	=4||
*M3/4	*M3/4
8GG/	8.A-\L
16r	.
16GG/	16B-\Jk
8GG/	8.B-\L
16r	.
16GG/	16A-\Jk
8GG/	8.A-\L
16r	.
16GG/	16A-\Jk
=5||	=5||
*M2/4	*M2/4
8GG/	8.A-\L
16r	.
16GG/	16A-\Jk
8GG/	8.A-\L
16r	.
16GG/	16F\Jk
=6||	=6||
*M3/4	*M3/4
8GG/	8.A-\L
16r	.
16GG/	16A-\Jk
8GG/	16A-\LL
.	16A-\JJ
16r	8r
16GG/	.
8GG/	8.r
16r	.
16GG/	16A-\
=7||	=7||
*M2/4	*M2/4
8GG/	8.A-\L
16r	.
16GG/	16A-\Jk
8GG/	8.A-\L
16r	.
16GG/	16F\Jk
=8||	=8||
*M3/4	*M3/4
8GG/	8.A-\L
16r	.
16GG/	16A-\Jk
8GG/	16A-\LK
.	8.A-\J
16r	.
16GG/	.
8GG/	8.r
16r	.
16GG/	16A-\
=9||	=9||
*M2/4	*M2/4
8GG/	8.A-\L
16r	.
16GG/	16A-\Jk
8GG/	8.A-\L
16r	.
16GG/	16F\Jk
=10||	=10||
*M3/4	*M3/4
8GG/	8.A-\L
16r	.
16GG/	16B-\Jk
8GG/	12B-\L
.	12A-\
16r	.
.	12A-\J
16GG/	.
8GG/	8.A-\L
16r	.
16GG/	16A-\Jk
=11||	=11||
*M2/4	*M2/4
8GG/	8.A-\L
16r	.
16GG/	16A-\Jk
8GG/	8A-\
16r	8r
16GG/	.
=12||	=12||
*M3/4	*M3/4
8GG/	8.A-\L
16r	.
16GG/	16B-\Jk
8GG/	8.B-\L
16r	.
16GG/	16A-\Jk
8GG/	8.A-\L
16r	.
16GG/	16A-\Jk
=13||	=13||
*M2/4	*M2/4
8GG/	8.A-\L
16r	.
16GG/	16A-\Jk
8GG/	8.A-\L
16r	.
16GG/	16F\Jk
=14||	=14||
*M3/4	*M3/4
8GG/	8.A-\L
16r	.
16GG/	16A-\Jk
8GG/	16A-\LL
.	16A-\JJ
16r	8r
16GG/	.
8GG/	8.r
16r	.
16GG/	16A-\
=15||	=15||
*M2/4	*M2/4
8GG/	8.A-\L
16r	.
16GG/	16A-\Jk
8GG/	8.A-\L
16r	.
16GG/	16F\Jk
=16||	=16||
*M3/4	*M3/4
8GG/	8.A-\L
16r	.
16GG/	16A-\Jk
8GG/	16A-\LL
.	16A-\JJ
16r	8r
16GG/	.
8GG/	8.r
16r	.
16GG/	16A-\
=17||	=17||
*M2/4	*M2/4
8GG/	8.A-\L
16r	.
16GG/	16A-\Jk
8GG/	8.A-\L
16r	.
16GG/	16F\Jk
=18||	=18||
*M3/4	*M3/4
8GG/	8.A-\L
16r	.
16GG/	16B-\Jk
8GG/	12B-\L
.	12A-\
16r	.
.	12A-\J
16GG/	.
8GG/	8.A-\L
16r	.
16GG/	16A-\Jk
=19||	=19||
*M2/4	*M2/4
8GG/	8.A-\L
16r	.
16GG/	16A-\Jk
8GG/	8A-\
16r	8r
16GG/	.
=20||	=20||
*M3/4	*M3/4
8GG/	8.A-\L
16r	.
16GG/	16B-\Jk
8GG/	8.B-\L
16r	.
16GG/	16A-\Jk
8GG/	8.A-\L
16r	.
16GG/	16A-\Jk
=21||	=21||
*M2/4	*M2/4
8GG/	8.A-\L
16r	.
16GG/	16A-\Jk
8GG/	8.A-\L
16r	.
16GG/	16F\Jk
!!pagebreak:default
=22||	=22||
.	!!pagebreak:default
*M3/4	*M3/4
8GG/	8.A-\L
16r	.
16GG/	16A-\Jk
8GG/	16A-\LL
.	16A-\JJ
16r	8r
16GG/	.
8GG/	8.r
16r	.
16GG/	16A-\
=23||	=23||
*M2/4	*M2/4
8GG/	8.A-\L
16r	.
16GG/	16A-\Jk
8GG/	8.A-\L
16r	.
16GG/	16F\Jk
=24||	=24||
*M3/4	*M3/4
8GG/	8.A-\L
16r	.
16GG/	16A-\Jk
8GG/	16A-\LL
.	16A-\JJ
16r	8r
16GG/	.
8GG/	8.r
16r	.
16GG/	16A-\
=25	=25
8GG/	8.A-\L
16r	.
16GG/	16A-\Jk
8GG/	8.A-\L
16r	.
16GG/	16A-\Jk
8GG/	8.A-\L
16r	.
16GG/	16B-\Jk
=26||	=26||
*M2/4	*M2/4
8GG/	8.c-\L
16r	.
16GG/	16B-\Jk
8GG/	8.c-\L
16r	.
16GG/	16A-\Jk
=27	=27
8GG/	8.B-\L
16r	.
16GG/	16c-\Jk
8GG/	12c-\L
.	12A-\
16r	.
.	12A-\J
16GG/	.
=28||	=28||
*M3/4	*M3/4
8GG/	8.A-\L
16r	.
16GG/	16B-\Jk
8GG/	8.c-\L
16r	.
16GG/	16A-\Jk
8GG/	8.A-\L
16r	.
16GG/	16A-\Jk
=29||	=29||
*M2/4	*M2/4
8GG/	8.A-\L
16r	.
16GG/	16A-\Jk
8GG/	4A-\
16r	.
16GG/	.
=30	=30
4r	4r
8GG/	8.F\L
16r	.
16GG/	16F\Jk
=31	=31
8GG/	8.c-\L
16r	.
16GG/	16A-\Jk
8GG/	8.A-\L
16r	.
16GG/	16A-\Jk
=32||	=32||
*M3/4	*M3/4
8GG/	8.A-\L
16r	.
16GG/	16A-\Jk
8GG/	8.A-\L
16r	.
16GG/	16F\Jk
8GG/	8.A-\L
16r	.
16GG/	16A-\Jk
=33||	=33||
*M2/4	*M2/4
8GG/	8.B-\L
16r	.
16GG/	16A-\Jk
8GG/	8.A-\L
16r	.
16GG/	16A-\Jk
=34||	=34||
*M3/4	*M3/4
8GG/	8.A-\L
16r	.
16GG/	16A-\Jk
8GG/	8A-\
16r	8r
16GG/	.
8GG/	8.A-\L
16r	.
16GG/	16A-\Jk
=35||	=35||
*M2/4	*M2/4
8GG/	8.B-\L
16r	.
16GG/	16A-\Jk
8GG/	8.A-\L
16r	.
16GG/	16A-\Jk
=36||	=36||
*M3/4	*M3/4
8GG/	8.A-\L
16r	.
16GG/	16A-\Jk
8GG/	8A-\
16r	8r
16GG/	.
8GG/	8.A-\L
16r	.
16GG/	16B-\Jk
=37||	=37||
*M2/4	*M2/4
8GG/	8.B-\L
16r	.
16GG/	16A-\Jk
8GG/	8.A-\L
16r	.
16GG/	16A-\Jk
=38||	=38||
*M3/4	*M3/4
8GG/	8.A-\L
16r	.
16GG/	16A-\Jk
8GG/	8A-\
16r	8r
16GG/	.
8GG/	8.A-\L
16r	.
16GG/	16A-\Jk
=39||	=39||
*M2/4	*M2/4
8GG/	8.c-\L
16r	.
16GG/	16A-\Jk
8GG/	8.A-\L
16r	.
16GG/	16A-\Jk
=40	=40
8GG/	8.A-\L
16r	.
16GG/	16A-\Jk
8GG/	8.A-\L
16r	.
16GG/	16F\Jk
=41||	=41||
*M3/4	*M3/4
8GG/	8.A-\L
16r	.
16GG/	16A-\Jk
8GG/	8.A-\L
16r	.
16GG/	16A-\Jk
8GG/	8.r
16r	.
16GG/	16A-\
=42||	=42||
*M2/4	*M2/4
8GG/	8.A-\L
16r	.
16GG/	16A-\Jk
8GG/	8.A-\L
16r	.
16GG/	16F\Jk
=43||	=43||
*M3/4	*M3/4
8GG/	8.A-\L
16r	.
16GG/	16A-\Jk
8GG/	16A-\LK
.	8.A-\J
16r	.
16GG/	.
4r	4r
==	==
*-	*-
